packages/core/src/svgs/tokens/branded/BXX.svg

<svg width="24" height="24" viewBox="0 0 24 24" fill="none" xmlns="http://www.w3.org/2000/svg">
<path fill-rule="evenodd" clip-rule="evenodd" d="M2 8.66675H5.19514C5.4359 8.66675 5.67428 8.71417 5.89671 8.8063C6.11914 8.89843 6.32123 9.03347 6.49147 9.2037C6.66171 9.37394 6.79674 9.57604 6.88888 9.79849C6.98101 10.0209 7.02842 10.2593 7.02842 10.5C7.02842 10.8359 6.89498 11.1581 6.65744 11.3957C6.41989 11.6332 6.09773 11.7667 5.76179 11.7667H5.70942C6.11525 11.7679 6.50403 11.93 6.79054 12.2174C7.07705 12.5049 7.23795 12.8941 7.23795 13.2999C7.23795 13.5669 7.18535 13.8314 7.08317 14.078C6.98099 14.3247 6.83122 14.5489 6.64241 14.7377C6.4536 14.9265 6.22946 15.0762 5.98277 15.1784C5.73608 15.2807 5.47168 15.3332 5.20467 15.3332H2V8.66675ZM3.42853 9.6191H4.85706C5.10964 9.6191 5.35187 9.71944 5.53048 9.89805C5.70908 10.0766 5.80941 10.3189 5.80941 10.5715C5.80941 10.824 5.70908 11.0662 5.53048 11.2449C5.35187 11.4234 5.10964 11.5238 4.85706 11.5238H3.42853V9.6191ZM3.42853 12.4762H4.85706C5.10964 12.4762 5.35187 12.5765 5.53048 12.7551C5.70908 12.9337 5.80941 13.176 5.80941 13.4285C5.80941 13.681 5.70908 13.9234 5.53048 14.1019C5.35187 14.2806 5.10964 14.3809 4.85706 14.3809H3.42853V12.4762Z" fill="url(#paint0_linear_364_5790)"/>
<path d="M7.71436 8.66675H9.63811L14.3809 15.3332H12.457L7.71436 8.66675Z" fill="url(#paint1_linear_364_5790)"/>
<path d="M13.905 8.66675H11.9813L7.23853 15.3332H9.16227L13.905 8.66675ZM15.3335 8.66675H17.2572L22 15.3332H20.0763L15.3335 8.66675Z" fill="url(#paint2_linear_364_5790)"/>
<path d="M21.5237 8.66675H19.5999L14.8572 15.3332H16.781L21.5237 8.66675Z" fill="url(#paint3_linear_364_5790)"/>
<defs>
<linearGradient id="paint0_linear_364_5790" x1="21.9994" y1="11.8214" x2="2.01274" y2="11.2861" gradientUnits="userSpaceOnUse">
<stop stop-color="#59B5F6"/>
<stop offset="1" stop-color="#1648C7"/>
</linearGradient>
<linearGradient id="paint1_linear_364_5790" x1="21.9997" y1="11.8214" x2="2.01298" y2="11.2861" gradientUnits="userSpaceOnUse">
<stop stop-color="#59B5F6"/>
<stop offset="1" stop-color="#1648C7"/>
</linearGradient>
<linearGradient id="paint2_linear_364_5790" x1="22" y1="11.8214" x2="2.01332" y2="11.2861" gradientUnits="userSpaceOnUse">
<stop stop-color="#59B5F6"/>
<stop offset="1" stop-color="#1648C7"/>
</linearGradient>
<linearGradient id="paint3_linear_364_5790" x1="21.9999" y1="11.8214" x2="2.01318" y2="11.2861" gradientUnits="userSpaceOnUse">
<stop stop-color="#59B5F6"/>
<stop offset="1" stop-color="#1648C7"/>
</linearGradient>
</defs>
</svg>

<svg xmlns="http://www.w3.org/2000/svg" width="24" height="24" fill="none" viewBox="0 0 24 24">
    <path fill="url(#BXX__a)" fill-rule="evenodd" d="M2 8.667h3.195A1.833 1.833 0 0 1 7.028 10.5a1.267 1.267 0 0 1-1.266 1.267h-.053A1.533 1.533 0 0 1 7.238 13.3a2.033 2.033 0 0 1-2.033 2.033H2zm1.429.952h1.428a.952.952 0 0 1 0 1.905H3.43zm0 2.857h1.428a.952.952 0 1 1 0 1.905H3.43z" clip-rule="evenodd"/>
    <path fill="url(#BXX__b)" d="M7.714 8.667h1.924l4.743 6.666h-1.924z"/>
    <path fill="url(#BXX__c)" d="M13.905 8.667h-1.924L7.24 15.333h1.923zm1.429 0h1.923L22 15.333h-1.924z"/>
    <path fill="url(#BXX__d)" d="M21.524 8.667H19.6l-4.743 6.666h1.924z"/>
    <defs>
        <linearGradient id="BXX__a" x1="21.999" x2="2.013" y1="11.821" y2="11.286" gradientUnits="userSpaceOnUse">
            <stop stop-color="#59B5F6"/>
            <stop offset="1" stop-color="#1648C7"/>
        </linearGradient>
        <linearGradient id="BXX__b" x1="22" x2="2.013" y1="11.821" y2="11.286" gradientUnits="userSpaceOnUse">
            <stop stop-color="#59B5F6"/>
            <stop offset="1" stop-color="#1648C7"/>
        </linearGradient>
        <linearGradient id="BXX__c" x1="22" x2="2.013" y1="11.821" y2="11.286" gradientUnits="userSpaceOnUse">
            <stop stop-color="#59B5F6"/>
            <stop offset="1" stop-color="#1648C7"/>
        </linearGradient>
        <linearGradient id="BXX__d" x1="22" x2="2.013" y1="11.821" y2="11.286" gradientUnits="userSpaceOnUse">
            <stop stop-color="#59B5F6"/>
            <stop offset="1" stop-color="#1648C7"/>
        </linearGradient>
    </defs>
</svg>
